app/img/icons/notification.svg

<svg width="16" height="20" viewBox="0 0 16 20" fill="none" xmlns="http://www.w3.org/2000/svg">
<path d="M15.5 16.2071V16.5H0.5V16.2071L2.35355 14.3536L2.5 14.2071V14V9C2.5 6.09437 4.02219 3.78092 6.61528 3.16653L7 3.07538V2.68V2C7 1.44614 7.44614 1 8 1C8.55386 1 9 1.44614 9 2V2.68V3.07506L9.38434 3.16644C11.9681 3.78076 13.5 6.10482 13.5 9V14V14.2071L13.6464 14.3536L15.5 16.2071ZM9.41352 18.5C9.20605 19.0806 8.64884 19.5 8 19.5C7.34433 19.5 6.79074 19.0813 6.58536 18.5H9.41352Z" fill="white" stroke="#C2CFE0"/>
</svg>

<svg width="16" height="20" fill="none" xmlns="http://www.w3.org/2000/svg"><path d="M15.5 16.207v.293H.5v-.293l1.854-1.853.146-.147V9c0-2.906 1.522-5.22 4.115-5.833L7 3.075V2c0-.554.446-1 1-1s1 .446 1 1v1.075l.384.091C11.968 3.781 13.5 6.105 13.5 9v5.207l.146.147 1.854 1.853zM9.414 18.5a1.5 1.5 0 01-2.828 0h2.828z" fill="#fff" stroke="#C2CFE0"/></svg>
